svg/part/hands_clapping_fill.svg

<?xml version="1.0" encoding="UTF-8"?>
<svg width="24px" height="24px" viewBox="0 0 24 24" version="1.1" xmlns="http://www.w3.org/2000/svg" xmlns:xlink="http://www.w3.org/1999/xlink">
    <title>hands_clapping_fill</title>
    <g id="Icon" stroke="none" stroke-width="1" fill="none" fill-rule="evenodd">
        <g id="Part" transform="translate(-336.000000, -240.000000)">
            <g id="hands_clapping_fill" transform="translate(336.000000, 240.000000)">
                <path d="M24,0 L24,24 L0,24 L0,0 L24,0 Z M12.5935,23.2578 L12.5819,23.2595 L12.5109,23.295 L12.4919,23.2987 L12.4767,23.295 L12.4057,23.2595 C12.3958,23.2564 12.387,23.259 12.3821,23.2649 L12.378,23.2758 L12.3609,23.7031 L12.3659,23.7235 L12.3769,23.7357 L12.4805,23.8097 L12.4953,23.8136 L12.5071,23.8097 L12.6107,23.7357 L12.6233,23.7197 L12.6267,23.7031 L12.6096,23.2758 C12.6076,23.2657 12.601,23.2593 12.5935,23.2578 Z M12.8584,23.1453 L12.8445,23.1473 L12.6598,23.2397 L12.6499,23.2499 L12.6472,23.2611 L12.6651,23.6906 L12.6699,23.7034 L12.6784,23.7105 L12.8793,23.8032 C12.8914,23.8069 12.9022,23.803 12.9078,23.7952 L12.9118,23.7812 L12.8777,23.1665 C12.8753,23.1546 12.8674,23.147 12.8584,23.1453 Z M12.143,23.1473 C12.1332,23.1424 12.1222,23.1453 12.1156,23.1526 L12.1099,23.1665 L12.0758,23.7812 C12.0751,23.7927 12.0828,23.8019 12.0926,23.8046 L12.1083,23.8032 L12.3092,23.7105 L12.3186,23.7024 L12.3225,23.6906 L12.3404,23.2611 L12.3372,23.2485 L12.3278,23.2397 L12.143,23.1473 Z" id="MingCute" fill-rule="nonzero"></path>
                <path d="M9.40193,3.59595 C9.53318,3.47614 9.6793,3.36857 9.83953,3.27606 C10.9854762,2.61447458 12.43737,2.96316896 13.1640176,4.04578042 L13.2551,4.19199 L13.9448,5.38931 C13.9924,5.32402 14.0426,5.26029 14.0954,5.19821 C14.6693,4.52351 15.4987,4.09706 16.4323,3.94057 C17.2649,3.80102 17.8952,4.37996 18.083,4.99113 C18.2883,5.65943 18.661,6.47033 19.1321,7.33934 C20.7111,10.252 20.4883,13.9281 18.3734,16.3764 C17.9532,18.2875 16.8281,20.0187 14.9733,21.0896 C11.6813543,22.9901652 7.49188199,21.9281631 5.49241918,18.7307176 L5.19385125,18.229225 L5.19385125,18.229225 L5.02063,17.9442 C4.8399325,17.64825 4.658335,17.3507812 4.49648406,17.0467312 L4.34198,16.7403 L3.16678,14.7812 C2.45172,13.5891 2.85233,12.0424 4.05616,11.3474 C4.15248,11.2918 4.25097333,11.2433556 4.35102074,11.2019185 L4.50218,11.145 L3.72831,9.80462 C3.03795,8.60889 3.44764,7.07991 4.64337,6.38956 C4.81595,6.28992 4.99547,6.2132 5.17841,6.15844 C4.70861,5.01791 5.1439,3.67768 6.24145,3.04401 C7.30663,2.42903 8.63627,2.687 9.40193,3.59595 Z M16.3224,6.0277 C16.0072,6.14309 15.7744,6.31113 15.6189,6.494 C15.4635,6.67667 15.3614,6.90031 15.3373,7.16766 C15.9156,7.27451 16.3372,7.73532 16.4849,8.21607 C16.6902,8.88437 17.0629,9.69526 17.534,10.5643 C17.7781,11.0146 17.9791,11.484 18.1366,11.9649 C18.2503,10.7476 18.005,9.45674 17.3739,8.29251 C16.9622,7.53321 16.5877,6.7559 16.3224,6.0277 Z M10.8395,5.00812 C10.6272333,5.13068889 10.538858,5.38544543 10.6182698,5.60840916 L10.656,5.69021 L11.5863,7.30153 L11.6565,7.41607 L12.3473,8.61259 C12.50994,8.389454 12.69978,8.1894476 12.9118536,8.01361016 L13.075,7.88628 L11.5224,5.1908 C11.3842,4.95191 11.0786,4.87011 10.8395,5.00812 Z M7.24145,4.77606 C7.00231,4.91413 6.92037,5.21993 7.05844,5.45908 L7.83072,6.79671 C7.95495,6.68658 8.09206,6.58725 8.24144,6.501 C8.38865,6.41601 8.54091,6.34769 8.69603,6.29546 L7.92446,4.95908 C7.78639,4.71993 7.4806,4.63799 7.24145,4.77606 Z M21.3651,3.99846 C21.6223143,4.44213143 21.5003133,5.00141265 21.0990188,5.30082805 L21.0015,5.36514 L20.1609,5.85244 C19.6831,6.12944 19.0713,5.96665 18.7943,5.48885 C18.5370857,5.04517857 18.6590867,4.48589735 19.0603812,4.18648195 L19.1579,4.12217 L19.9984,3.63487 C20.4762,3.35788 21.0881,3.52066 21.3651,3.99846 Z M18.6333,1.08901 C19.1286929,1.22174 19.4369786,1.70402408 19.3640781,2.19936255 L19.3404,2.31375 L19.211,2.79672 C19.0681,3.33018 18.5197,3.64677 17.9863,3.50382 C17.4909071,3.37109 17.1825352,2.88881454 17.2554233,2.3934693 L17.2791,2.27908 L17.4086,1.79612 C17.5515,1.26265 18.0998,0.946068 18.6333,1.08901 Z M14.9863,1.08901 C15.4816,0.956278143 15.9898337,1.21976851 16.1743252,1.68521314 L16.211,1.79612 L16.3404,2.27908 C16.4834,2.81255 16.1668,3.36088 15.6333,3.50382 C15.1379071,3.63655929 14.6297531,3.37306255 14.4452734,2.90762498 L14.4086,2.79672 L14.2792,2.31375 C14.1362,1.78029 14.4528,1.23195 14.9863,1.08901 Z" id="形状" fill="#09244B"></path>
            </g>
        </g>
    </g>
</svg>

<svg xmlns="http://www.w3.org/2000/svg" width="24" height="24"><g fill="none" fill-rule="evenodd"><path d="M24 0v24H0V0h24ZM12.594 23.258l-.012.002-.071.035-.02.004-.014-.004-.071-.036c-.01-.003-.019 0-.024.006l-.004.01-.017.428.005.02.01.013.104.074.015.004.012-.004.104-.074.012-.016.004-.017-.017-.427c-.002-.01-.009-.017-.016-.018Zm.264-.113-.014.002-.184.093-.01.01-.003.011.018.43.005.012.008.008.201.092c.012.004.023 0 .029-.008l.004-.014-.034-.614c-.003-.012-.01-.02-.02-.022Zm-.715.002a.023.023 0 0 0-.027.006l-.006.014-.034.614c0 .012.007.02.017.024l.015-.002.201-.093.01-.008.003-.011.018-.43-.003-.012-.01-.01-.184-.092Z"/><path fill="#09244B" d="M9.402 3.596a2.5 2.5 0 0 1 3.762.45l.091.146.69 1.197c.047-.065.098-.129.15-.19.574-.675 1.404-1.102 2.337-1.258.833-.14 1.463.439 1.651 1.05.205.668.578 1.48 1.05 2.348 1.578 2.913 1.355 6.59-.76 9.037-.42 1.912-1.545 3.643-3.4 4.714a7.036 7.036 0 0 1-9.48-2.36l-.3-.5-.172-.286c-.181-.296-.363-.593-.525-.897l-.154-.307-1.175-1.959a2.487 2.487 0 0 1 1.184-3.58l.151-.056-.774-1.34a2.5 2.5 0 0 1 1.45-3.647 2.5 2.5 0 0 1 4.224-2.562Zm6.92 2.432a1.66 1.66 0 0 0-.703.466 1.183 1.183 0 0 0-.282.674c.579.107 1 .567 1.148 1.048.205.668.578 1.48 1.049 2.348.244.45.445.92.603 1.4a6.473 6.473 0 0 0-.763-3.671c-.412-.76-.786-1.537-1.052-2.265Zm-5.482-1.02a.5.5 0 0 0-.222.6l.038.082.93 1.612.07.114.691 1.197c.163-.224.353-.424.565-.6l.163-.127-1.553-2.695a.5.5 0 0 0-.683-.183ZM7.24 4.776a.5.5 0 0 0-.183.683l.773 1.338a2.512 2.512 0 0 1 .865-.502L7.924 4.96a.5.5 0 0 0-.683-.183Zm14.124-.778a1 1 0 0 1-.266 1.303l-.098.064-.84.487a1 1 0 0 1-1.1-1.666l.097-.064.84-.487a1 1 0 0 1 1.367.363ZM18.633 1.09a1 1 0 0 1 .731 1.11l-.024.115-.129.483a1 1 0 0 1-1.956-.404l.024-.114.13-.483a1 1 0 0 1 1.224-.707Zm-3.647 0a1 1 0 0 1 1.188.596l.037.111.13.483a1 1 0 0 1-1.896.629l-.036-.111-.13-.483a1 1 0 0 1 .707-1.225Z"/></g></svg>
